X:1
T:Ave Verum Corpus
C:Wolfgang Amadeus Mozart
O:K. 618
M:4/4
L:1/4
Q:1/4=60
K:D
% Ave verum corpus natum
A A G F|E D2 z|A A G F|E D2 z|
% ex Maria Virgine
G G F E|D3 z|
% Vere passum immolatum
F G A G|F2 E2|
% In cruce pro homine
D E F G|A4|
% Cuius latus perforatum
G F E D|D3 z|]
